X:413
T:Monadh Gowan 
C:Joe Buchanan's Scottish Tome - Page 377.0
I:377 0
C:W. Grant
R:March
Z:Carl Allison
L:1/8
M:2/4
K:A
c/>d/ | "A"e/>c/B/>c/ "Ea"AA/>c/ | "A"e/>c/c/>f/ "Ea"ec/>B/ | "A"A/>c/B/<c/ "Ea"e/>A/f/>e/ | "B7"cB "E7"Bc/>d/ |
"A"e/>c/B/<c/ "Ea"AA/>c/ | "A"e/>c/c/>f/ "Ea"ec/>B/ | "F#m"A/>B/c/>a/ "E7"f/>e/e/>f/ | "A"c"D"A "A"A :|
c/>d/ | "A"e/>f/c/<e/ "Ea"ag/>f/ | "A"e/>A/c/<e/ "D"f/>e/e/>a/ | "A"A/>c/B/>c/ "Ea"e/>A/f/>e/ | "B7"cB "E7"Bc/>d/ |
"A"e/>f/c/<e/ "Ea"ag/>f/ | "A"eA/>f/ "Ea"ec/>B/ | "F#m"A/>B/c/>a/ "E7"f/>e/e/>f/ | "A"c"D"A "A"Ac/>d/ |
"A"e/>f/c/<e/ "Ea"ag/>f/ | "A"e/>A/c/<e/ "D"f/>e/e/>a/ | "A"A/>c/B/>c/ "Ea"e/>A/f/>e/ | "B7"cB "E7"Bc/>d/ |
"A"e/>c/B/<c/ "Ea"AA/>c/ | "A"e/>c/c/>f/ "Ea"ec/>B/ | "F#m"A/>B/c/>a/ "E7"f/>e/e/>f/ | "A"c"D"A "A"A |]
a | "A"cA/>c/ "Ea"e/>c/c/>f/ | "A"eA/>c/ "D"f/>e/e/>a/ | "A"A/>c/B/>c/ "Ea"e/>A/f/>e/ | "B7"cB "E7"Ba |
"A"cA/>c/ "Ea"e/>c/c/>f/ | "A"eA/>f/ "Ea"ec/>B/ | "F#m"A/>B/c/>a/ "E7"f/>e/e/>f/ | "A"c"D"A "A"A :|
f/>g/ | "A"a/>^g/a/>f/ "Ea"eA/>c/ | "A"B/>c/A/>c/ "Ea"f/>e/e/>a/ | "A"A/>c/B/>c/ "Ea"e/>A/f/>e/ | "B7"cB "F7"Bf/>g/ |
"A"a/>g/a/>f/ "Ea"eA/>c/ | "A"B/>c/A/>f/ "Ea"ec/>B/ | "F#m"A/>B/c/>a/ "Ea"f/>e/e/>f/ | "A"c"D"A "A"Af/>g/ |
"A"a/>g/a/>f/ "Ea"eA/>c/ | "A"B/>c/A/>c/ "Ea"f/>e/e/>a/ | "A"A/>c/B/>c/ "Ea"e/>A/f/>e/ | "B7"cB "F7"Ba |
"A"cA/>c/ "C#"e/>c/c/>f/ | "D"fA/>f/ "C#/A"ec/>B/ | "F#m"A/>B/c/>a/ "E7"f/>e/e/>f/ | "A"c"D"A "A"A |]
W:Errata: Changed the key to A after listening to the tune.

